usr/share/icons/biglinux-icons-material/22/actions/path-reverse.svg

<svg xmlns="http://www.w3.org/2000/svg" viewBox="0 0 22 22">
  <defs id="defs3051">
    <style type="text/css" id="current-color-scheme">
      .ColorScheme-Text {
        color:#dedede;
      }
      .ColorScheme-Highlight {
        color:#3daee9;
      }
      </style>
  </defs>
 <path 
     style="fill:currentColor;fill-opacity:1;stroke:none" 
     d="M 18 3 C 18 6.52526 15.39058 9.8481831 12 10.408203 L 12 11.421875 C 15.94528 10.863365 19 7.07891 19 3 L 18 3 z M 7 4 L 5 5.5 L 7 7 L 7 6 L 12 6 L 12 5 L 7 5 L 7 4 z M 10 10.578125 C 6.05472 11.136625 3 14.92112 3 19 L 4 19 C 4 15.47474 6.60942 12.151817 10 11.591797 L 10 10.578125 z M 15 15 L 15 16 L 10 16 L 10 17 L 15 17 L 15 18 L 17 16.5 L 15 15 z "
     class="ColorScheme-Text"
     />
 <path 
     style="fill:currentColor;fill-opacity:1;stroke:none" 
     d="M 9 9 L 9 13 L 13 13 L 13 9 L 9 9 z M 10 10 L 12 10 L 12 12 L 10 12 L 10 10 z "
     class="ColorScheme-Highlight"
     />
</svg>

<svg xmlns="http://www.w3.org/2000/svg" viewBox="0 0 22 22"><path d="M18 3c0 3.525-2.61 6.848-6 7.408v1.014c3.945-.559 7-4.343 7-8.422h-1zM7 4 5 5.5 7 7V6h5V5H7V4zm3 6.578c-3.945.559-7 4.343-7 8.422h1c0-3.525 2.61-6.848 6-7.408v-1.014zM15 15v1h-5v1h5v1l2-1.5-2-1.5z" style="fill:currentColor;fill-opacity:1;stroke:none;color:#dedede"/><path d="M9 9v4h4V9H9zm1 1h2v2h-2v-2z" style="fill:currentColor;fill-opacity:1;stroke:none;color:#3daee9"/></svg>
